!! 00000] TT[WS
!!!OTL: Baowei hao shiguang
!!!ARE: Asia, China, Shanxi Zuoquan
!! Ethnic Group: Han
!! WII, 217 (1)
!!!SCT: J0723
!!!YEM: Copyright 1995, estate of Helmut Schaffrath.
**kern
*ICvox
*Ivox
*M4/4
*k[b-]
*F:
{8f
8f
8e
8d
8f
8c
4c
=1
8a
8cc
8dd
8ff
2cc
=2
8a
8cc
4dd
8dd
4cc
8a
=3
8cc
8a
8g
8a
2g}
=4
{8cc
8a
8d
8f
4g
8g
8a
=5
8cc
8a
8cc
8dd
2f
=6
8d
8f
4g
8a
4g
8d
=7
8f
8d
8c
8d
2c}
=8
{8cc
8a
8d
8f
4g
8g
8a
=9
8cc
8a
8cc
8dd
2f
=10
8d
8f
4g
8a
4g
8d
=11
8f
8d
8c
8d
2c}
==
!!!AGN: Xiaodiao. XÅshi, Sushuo
!!!ONB: ESAC (Essen Associative Code) Database: CHINA
!!!AMT: simple quadruple
!!!AIN: vox
!!!EED: Helmut Schaffrath
!!!EEV: 1.0
*-
